packages/calcite-ui-icons/icons/subheading-1-rtl-24.svg

<svg xmlns="http://www.w3.org/2000/svg" viewBox="0 0 24 24"><path d="M22 10v1h-3v-1h1V7h-1V6h2v4h1zm-5-3H2v2h15V7zm5 6H2v1h20v-1zm0 4H2v1h20v-1zm0 4H2v1h20v-1zm0-18H2v1h20V3z"/><path fill="none" d="M0 0h24v24H0z"/></svg>

<?xml version="1.0" encoding="UTF-8"?><svg id="icons" xmlns="http://www.w3.org/2000/svg" viewBox="0 0 24 24"><path d="M22,10v1h-3v-1h1v-3h-1v-1h2v4h1ZM17,7H2s0,2,0,2h15s0-2,0-2ZM22,13H2s0,1,0,1h20s0-1,0-1ZM22,17H2s0,1,0,1h20s0-1,0-1ZM22,21H2s0,1,0,1h20s0-1,0-1ZM22,3.00003H2s0,.99997,0,.99997h20s0-.99997,0-.99997Z"/><rect width="24" height="24" style="fill:none;"/></svg>
